X: 12
T:The Welm Brband P1y
% Nottingham Music Database
S:Chris Dewhurst 1955, via Phil Rowe
M:6/8
K:Gm
D|"G"BGB GGB|"C"c2A G3|"C"(3cBcA G2A|"Cm"dcB ecG|"D7"F2D cFD|
"G"DGB dBG|"G"GFG "E7"BAG|"Am"Ace "Dm"fed|"Em"edB "G"G\
:|
K:Am
P:/8C/8C/8Ep8g/8f/8"A7"d/2(3e d/2+ec cAA|"Em"e3 g3:|
P:B
(3G/2G/2B/2|"A"A2A "C"[c3g3|"D"F2A B3-|2c2 B2A|A2B A2B|"A/c"c2A "E7"^G2A|
"Am"cBA c3|"G"dBG "3"G3:|


